storage/app/icons/phosphoricons/duotone/alien-duotone.svg

<svg xmlns="http://www.w3.org/2000/svg" fill="currentColor" viewBox="0 0 256 256"><path d="M128 24a88 88 0 0 0-88 88c0 48.6 56 120 88 120s88-71.4 88-120a88 88 0 0 0-88-88m-24 120a32 32 0 0 1-32-32 8 8 0 0 1 8-8 32 32 0 0 1 32 32 8 8 0 0 1-8 8m48 0a8 8 0 0 1-8-8 32 32 0 0 1 32-32 8 8 0 0 1 8 8 32 32 0 0 1-32 32" opacity=".2"/><path d="M128 16a96.11 96.11 0 0 0-96 96c0 24 12.56 55.06 33.61 83 21.18 28.15 44.5 45 62.39 45s41.21-16.81 62.39-45c21.05-28 33.61-59 33.61-83a96.11 96.11 0 0 0-96-96m49.61 169.42C160.24 208.49 140.31 224 128 224s-32.24-15.51-49.61-38.58C59.65 160.5 48 132.37 48 112a80 80 0 0 1 160 0c0 20.37-11.65 48.5-30.39 73.42M120 136a40 40 0 0 0-40-40 16 16 0 0 0-16 16 40 40 0 0 0 40 40 16 16 0 0 0 16-16m-40-24a24 24 0 0 1 24 24 24 24 0 0 1-24-24m96-16a40 40 0 0 0-40 40 16 16 0 0 0 16 16 40 40 0 0 0 40-40 16 16 0 0 0-16-16m-24 40a24 24 0 0 1 24-24 24 24 0 0 1-24 24m0 48a8 8 0 0 1-8 8h-32a8 8 0 0 1 0-16h32a8 8 0 0 1 8 8"/></svg>

<svg xmlns="http://www.w3.org/2000/svg" viewBox="0 0 256 256" fill="currentColor"><path d="M128,24a88,88,0,0,0-88,88c0,48.6,56,120,88,120s88-71.4,88-120A88,88,0,0,0,128,24ZM104,144a32,32,0,0,1-32-32,8,8,0,0,1,8-8,32,32,0,0,1,32,32A8,8,0,0,1,104,144Zm48,0a8,8,0,0,1-8-8,32,32,0,0,1,32-32,8,8,0,0,1,8,8A32,32,0,0,1,152,144Z" opacity="0.2"/><path d="M128,16a96.11,96.11,0,0,0-96,96c0,24,12.56,55.06,33.61,83,21.18,28.15,44.5,45,62.39,45s41.21-16.81,62.39-45c21.05-28,33.61-59,33.61-83A96.11,96.11,0,0,0,128,16Zm49.61,169.42C160.24,208.49,140.31,224,128,224s-32.24-15.51-49.61-38.58C59.65,160.5,48,132.37,48,112a80,80,0,0,1,160,0C208,132.37,196.35,160.5,177.61,185.42ZM120,136A40,40,0,0,0,80,96a16,16,0,0,0-16,16,40,40,0,0,0,40,40A16,16,0,0,0,120,136ZM80,112a24,24,0,0,1,24,24h0A24,24,0,0,1,80,112Zm96-16a40,40,0,0,0-40,40,16,16,0,0,0,16,16,40,40,0,0,0,40-40A16,16,0,0,0,176,96Zm-24,40a24,24,0,0,1,24-24A24,24,0,0,1,152,136Zm0,48a8,8,0,0,1-8,8H112a8,8,0,0,1,0-16h32A8,8,0,0,1,152,184Z"/></svg>
